kora/status/symbolic/weather-tornado-symbolic.svg

<svg xmlns="http://www.w3.org/2000/svg" width="16" height="16" version="1.1">
 <path style="fill:#dfdfdf" d="m 2.0010719,1.000109 c -1.33476253,0 -1.33476253,2.0080803 0,2.0080803 H 2.286737 c 0.1274046,0 0.2209674,0.1137779 0.02986,0.2265578 -0.6300557,0.5369518 -0.351358,1.7835186 0.6798232,1.7695458 h 2.252474 c 0.2060372,0.00898 0.1493023,0.1517039 0.083609,0.2075948 C 4.8149219,5.6310695 4.8517498,6.5133473 5.451945,6.8616674 5.541526,6.9085754 5.505694,6.9844277 5.412131,6.9844277 H 4.9920946 c -1.3914974,-0.051899 -1.3914974,2.0679634 0,2.0160647 h 1.2929579 c 0.1074977,0 0.1791628,0.1247565 0.035833,0.2075948 -0.5175813,0.4311584 -0.4648278,1.3124378 0.1373581,1.6597598 0.1761767,0.101801 0.066688,0.183641 -0.013935,0.247517 -0.5952185,0.352312 -0.6459813,1.237584 -0.1094883,1.660758 0.1244186,0.09781 0.049767,0.185638 -0.045786,0.185638 H 5.9973968 c -1.3556649,0 -1.3556649,2.038021 0,2.038021 h 1.0152556 c 1.0112743,0.01896 1.3407347,-1.200656 0.7206324,-1.766551 -0.1283999,-0.156694 -0.030856,-0.234542 0.038819,-0.234542 h 1.2362231 c 1.3477021,0 1.3477021,-2.028042 0,-2.028042 H 8.7196754 c -0.1413395,0 -0.1522884,-0.104795 -0.075647,-0.172663 C 9.1446892,10.418724 9.1645962,9.6412417 8.7077312,9.2300443 8.5584289,9.0803366 8.63308,9.0004924 8.7475451,9.0004924 H 9.0142986 C 10.016615,9.0044846 10.315219,7.8078205 9.7190054,7.2519056 9.6055357,7.1391258 9.6314147,7.0043888 9.754838,7.0043888 h 1.250158 c 1.036158,0.014971 1.320828,-1.2475648 0.672856,-1.7835186 -0.08162,-0.08184 -0.08062,-0.2165773 0.07166,-0.2165773 h 1.250158 c 1.333767,0 1.333767,-2.0080802 0,-2.0080802 h -0.321498 c -0.118447,0 -0.153284,-0.099805 -0.06768,-0.1696688 C 13.33212,2.3255218 13.072334,0.98613627 12.00333,1.000109 Z"/>
</svg>

<svg xmlns="http://www.w3.org/2000/svg" viewBox="0 0 16 16">
 <defs>
  <style id="current-color-scheme" type="text/css">
   .ColorScheme-Text { color:#dfdfdf; } .ColorScheme-Highlight { color:#4285f4; } .ColorScheme-NeutralText { color:#ff9800; } .ColorScheme-PositiveText { color:#4caf50; } .ColorScheme-NegativeText { color:#f44336; }
  </style>
 </defs>
 <path style="fill:currentColor;" class="ColorScheme-Text" d="m2.001 1c-1.335 0-1.335 2.008 0 2.008h.286c.127 0 .221.114.03.227-.63.537-.352 1.783.679 1.769h2.253c.206.009.149.152.084.208-.518.419-.481 1.301.119 1.65.09.047.054.122-.04.122h-.42c-1.391-.051-1.391 2.068 0 2.016h1.293c.108 0 .179.125.036.208-.518.431-.465 1.313.137 1.66.176.102.067.183-.014.247-.595.353-.646 1.238-.109 1.661.124.098.05.186-.046.186h-.292c-1.355 0-1.355 2.038 0 2.038h1.016c1.011.019 1.34-1.201.72-1.767-.128-.156-.031-.234.039-.234h1.236c1.348 0 1.348-2.028 0-2.028h-.288c-.142 0-.153-.105-.076-.173.501-.379.521-1.157.064-1.568-.15-.15-.075-.23.04-.23h.266c1.003.004 1.301-1.192.705-1.748-.113-.113-.088-.248.036-.248h1.25c1.036.015 1.321-1.247.673-1.783-.082-.082-.081-.217.072-.217h1.25c1.333 0 1.333-2.008 0-2.008h-.322c-.118 0-.153-.1-.068-.169.722-.501.462-1.841-.607-1.827z"/>
</svg>
